icons/svg/glass-mug.svg

﻿<?xml version="1.0" encoding="utf-8"?>
<!DOCTYPE svg PUBLIC "-//W3C//DTD SVG 1.1//EN" "http://www.w3.org/Graphics/SVG/1.1/DTD/svg11.dtd">
<svg xmlns="http://www.w3.org/2000/svg" xmlns:xlink="http://www.w3.org/1999/xlink" version="1.1" baseProfile="full" width="24" height="24" viewBox="0 0 24.00 24.00" enable-background="new 0 0 24.00 24.00" xml:space="preserve">
	<path fill="#000000" fill-opacity="1" stroke-linejoin="round" d="M 10,4L 10,7L 18,7L 18,4L 10,4 Z M 8,2.00001L 20,2.00001L 21,2L 21,3L 20,4L 20,20L 21,21L 21,22L 20,22L 8,22L 7,22L 7,21L 8,20L 8,18.5995L 4.19828,16.8328C 3.49283,16.5238 2.99999,15.8195 2.99999,15L 3,8C 3,6.89543 3.89543,6 5,6L 8,6L 8,4L 7,3L 7,2.00001L 8,2.00001 Z M 5,15L 8,16.3941L 8,8.00001L 5,8.00001L 5,15 Z "/>
</svg>

<svg xmlns="http://www.w3.org/2000/svg" version="1.1" baseProfile="full" width="24" height="24" viewBox="0 0 24.00 24.00" xml:space="preserve"><path fill="#000" fill-opacity="1" stroke-linejoin="round" d="M10 4v3h8V4h-8zM8 2h13v1l-1 1v16l1 1v1H7v-1l1-1v-1.4l-3.802-1.767C3.493 16.523 3 15.82 3 15V8c0-1.105.895-2 2-2h3V4L7 3V2h1zM5 15l3 1.394V8H5v7z"/></svg>
